X: 115
M:3/2s
L:1/8
Q:160
K:F
|: d4 de f2f e2 d2| e2 c4 g3 f2 e2| f3 g a2 gf efed| A2d4 F2 E2 D2| d4 de f2f e2 d2| e2 c4 g3 f2 e2| f3 g a2 gf efed| A2d4 F2 E2 D2:|

